X: 3413
T: Beside A Rath
R: hornpipe
M: 4/4
K: Gmajor
|:BA|GEDE G2GA|Bdde dcBA|BGED EFGA|BGcB AGEF|
GEDE G3A|Bdef gage|fdce dBGB|A2G2G2:|
|:ef|gfef dfag|fdeB d3e|dBAF GABd|cBAG EGFA|
GEDE G3A|Bdef gage|fdce dBGB|A2G2G2:|

